X: 30
T:The Polygon
% Nottingham Music Database
S:Mick Peat
M:6/8
K:D
f/2g/2|"D"afd "A"ecA|"G"dBG "A"F2E|"D"DFA "G"Bgf|"Em"efd "A"c2f/2g/2|
"D"afd "A"ecA|"G"dBG "A"F2E|"D"DFA "G"Bgf|"A"edc "D"d2:|
"A"Ace gec|"D"Adf afd|"A"Ace gec|"E7"Bed "A"c3|
"A"Ace gec|"D"Adf afd|"A"AcA "G"Bgf|"A"edc "D"d2|<end>
<start>
